;FLAVOR:UltiGCode
;TIME:15764
;MATERIAL:18719
;MATERIAL2:0
;NOZZLE_DIAMETER:0.4
;MINX:76.251
;MINY:88.26
;MINZ:0.27
;MAXX:149.857
;MAXY:134.74
;MAXZ:33.17
;TARGET_MACHINE.NAME:Ultimaker 2+
;Generated with Cura_SteamEngine 5.6.0
M82 ;absolute extrusion mode
G0 F3000 Y50 ;avoid prime blob
G92 E0
G92 E0
G10
;LAYER_COUNT:330
;LAYER:0
M107
G0 F7200 X77.386 Y92.856 Z0.27
;TYPE:SKIRT
G11
G1 F1800 X77.829 Y92.499 E0.06145
G1 X78.322 Y92.216 E0.12284
G1 X78.853 Y92.015 E0.18416
G1 X79.563 Y91.861 E0.26262
G1 X82.207 Y91.857 E0.54817
G1 X84.988 Y91.813 E0.84856
G1 X87.704 Y91.692 E1.14218
G1 X90.427 Y91.495 E1.43703
G1 X91.612 Y91.376 E1.56565
G1 X92.937 Y91.263 E1.70927
G1 X103.198 Y91.26 E2.81746
G1 X104.981 Y91.285 E3.01004
G1 X105.701 Y91.306 E3.08784
G1 X108.393 Y91.308 E3.37857
G1 X111.145 Y91.231 E3.67591
G1 X113.837 Y91.079 E3.96711
G1 X116.581 Y90.848 E4.26451
G1 X119.293 Y90.54 E4.55928
G1 X121.967 Y90.16 E4.85098
G1 X123.681 Y89.863 E5.03885
G1 X124.747 Y89.692 E5.15545
G1 X128.237 Y89.484 E5.53304
G1 X129.606 Y89.36 E5.68149
G1 X130.643 Y89.28 E5.79382
G1 X131.533 Y89.237 E5.89006
G1 X134.305 Y89.06 E6.19004
G1 X137.021 Y88.81 E6.48461
G1 X141.03 Y88.3 E6.92107
G1 X141.722 Y88.263 E6.99591
G1 X143.761 Y88.26 E7.21613
G1 X144.428 Y88.269 E7.28817
G1 X145.145 Y88.351 E7.36611
G1 X145.769 Y88.488 E7.43511
G1 X146.289 Y88.645 E7.49377
G1 X147.102 Y89.077 E7.5932
G1 X147.869 Y89.653 E7.69679
G1 X148.278 Y90.014 E7.75571
G1 X148.782 Y90.679 E7.84583
G1 X149.357 Y91.652 E7.96789
G1 X149.603 Y92.165 E8.02933
G1 X149.766 Y92.715 E8.09129
G1 X149.853 Y93.406 E8.1665
G1 X149.857 Y128.863 E11.99586
G1 X149.846 Y129.601 E12.07557
G1 X149.785 Y130.198 E12.14038
G1 X149.634 Y130.759 E12.20313
G1 X149.335 Y131.393 E12.27883
G1 X148.691 Y132.443 E12.41186
G1 X148.354 Y132.897 E12.47293
G1 X147.888 Y133.367 E12.54441
G1 X147.307 Y133.848 E12.62587
G1 X146.449 Y134.267 E12.72899
G1 X145.923 Y134.471 E12.78992
G1 X145.213 Y134.636 E12.86865
G1 X144.52 Y134.717 E12.944
G1 X143.384 Y134.74 E13.06671
G1 X142.362 Y134.74 E13.17709
G1 X141.422 Y134.723 E13.27863
G1 X140.386 Y134.59 E13.39143
G1 X139.274 Y134.431 E13.51275
G1 X136.605 Y134.128 E13.80285
G1 X133.882 Y133.894 E14.09802
G1 X130.734 Y133.719 E14.43853
G1 X128.109 Y133.499 E14.72302
G1 X125.517 Y133.352 E15.00341
G1 X124.731 Y133.317 E15.08838
G1 X122.027 Y132.86 E15.38456
G1 X119.287 Y132.467 E15.6835
G1 X116.609 Y132.161 E15.97461
G1 X113.9 Y131.927 E16.26827
G1 X111.176 Y131.772 E16.56294
G1 X108.422 Y131.691 E16.8605
G1 X105.72 Y131.689 E17.15232
G1 X104.322 Y131.725 E17.30335
G1 X103.166 Y131.74 E17.42821
G1 X93.504 Y131.74 E18.4717
G1 X92.633 Y131.725 E18.56579
G1 X91.512 Y131.615 E18.68744
G1 X88.727 Y131.378 E18.9893
G1 X86.032 Y131.227 E19.28082
G1 X81.927 Y131.14 E19.72426
G1 X80.507 Y131.14 E19.87762
G1 X79.809 Y131.13 E19.95301
G1 X79.212 Y131.07 E20.01781
G1 X78.662 Y130.924 E20.07927
G1 X78.198 Y130.722 E20.13392
G1 X77.717 Y130.42 E20.19526
G1 X77.244 Y130.001 E20.26351
G1 X76.889 Y129.559 E20.32473
G1 X76.606 Y129.065 E20.38622
G1 X76.405 Y128.534 E20.44754
G1 X76.298 Y128.04 E20.50213
G1 X76.253 Y127.285 E20.58381
G1 X76.251 Y96.092 E23.95266
G1 X76.26 Y95.422 E24.02502
G1 X76.319 Y94.825 E24.08981
G1 X76.465 Y94.275 E24.15127
G1 X76.696 Y93.755 E24.21272
G1 X77.006 Y93.278 E24.27416
G1 X77.386 Y92.856 E24.33549
G0 F7200 X77.64 Y93.165
G1 F1800 X78.031 Y92.844 E24.39013
G1 X78.467 Y92.589 E24.44468
G1 X78.938 Y92.406 E24.49925
G1 X79.607 Y92.261 E24.57318
G1 X82.213 Y92.257 E24.85463
G1 X85.006 Y92.213 E25.15631
G1 X87.722 Y92.092 E25.44993
G1 X90.46 Y91.894 E25.74641
G1 X91.646 Y91.775 E25.87514
G1 X92.971 Y91.662 E26.01876
G1 X103.192 Y91.66 E27.12262
G1 X104.969 Y91.685 E27.31456
G1 X105.689 Y91.706 E27.39235
G1 X108.404 Y91.708 E27.68557
G1 X111.156 Y91.631 E27.9829
G1 X113.871 Y91.478 E28.27659
G1 X116.615 Y91.246 E28.574
G1 X119.349 Y90.936 E28.87116
G1 X122.023 Y90.556 E29.16286
G1 X123.744 Y90.258 E29.35149
G1 X124.81 Y90.087 E29.46809
G1 X128.264 Y89.883 E29.84177
G1 X129.637 Y89.759 E29.99066
G1 X130.663 Y89.68 E30.1018
G1 X131.553 Y89.636 E30.19803
G1 X134.334 Y89.459 E30.49899
G1 X137.071 Y89.207 E30.79584
G1 X141.08 Y88.697 E31.2323
G1 X141.723 Y88.663 E31.30184
G1 X143.756 Y88.66 E31.5214
G1 X144.423 Y88.669 E31.59344
G1 X145.06 Y88.742 E31.66269
G1 X145.653 Y88.871 E31.72823
G1 X146.137 Y89.017 E31.78283
G1 X146.862 Y89.397 E31.87123
G1 X147.604 Y89.953 E31.97137
G1 X147.983 Y90.288 E32.026
G1 X148.438 Y90.883 E32.1069
G1 X148.998 Y91.828 E32.22553
G1 X149.221 Y92.282 E32.28016
G1 X149.369 Y92.765 E32.33472
G1 X149.456 Y93.456 E32.40993
G1 X149.457 Y128.857 E36.23324
G1 X149.446 Y129.595 E36.31296
G1 X149.398 Y130.098 E36.36753
G1 X149.272 Y130.588 E36.42217
G1 X148.973 Y131.222 E36.49787
G1 X148.368 Y132.207 E36.62272
G1 X148.07 Y132.615 E36.67728
G1 X147.604 Y133.085 E36.74876
G1 X147.088 Y133.51 E36.82096
G1 X146.302 Y133.895 E36.91548
G1 X145.832 Y134.081 E36.97007
G1 X145.122 Y134.246 E37.0488
G1 X144.512 Y134.317 E37.11512
G1 X143.376 Y134.34 E37.23784
G1 X142.368 Y134.34 E37.3467
G1 X141.473 Y134.326 E37.44337
G1 X140.443 Y134.194 E37.55552
G1 X139.331 Y134.035 E37.67684
G1 X136.639 Y133.729 E37.96945
G1 X133.916 Y133.496 E38.26461
G1 X130.767 Y133.32 E38.60523
G1 X128.142 Y133.101 E38.88971
G1 X125.535 Y132.952 E39.17173
G1 X124.749 Y132.917 E39.2567
G1 X122.084 Y132.464 E39.54865
G1 X119.344 Y132.071 E39.8476
G1 X116.643 Y131.762 E40.14121
G1 X113.934 Y131.529 E40.43486
G1 X111.188 Y131.372 E40.73191
G1 X108.434 Y131.291 E41.02947
G1 X105.71 Y131.289 E41.32367
G1 X104.317 Y131.325 E41.47416
G1 X103.161 Y131.34 E41.59902
G1 X93.51 Y131.34 E42.64133
G1 X92.672 Y131.327 E42.73184
G1 X91.546 Y131.216 E42.85404
G1 X88.761 Y130.98 E43.1559
G1 X86.04 Y130.827 E43.45023
G1 X81.935 Y130.74 E43.89367
G1 X80.513 Y130.74 E44.04725
G1 X79.815 Y130.73 E44.12264
G1 X79.312 Y130.683 E44.1772
G1 X78.822 Y130.557 E44.23184
G1 X78.358 Y130.355 E44.28649
G1 X77.932 Y130.083 E44.34108
G1 X77.554 Y129.748 E44.39563
G1 X77.234 Y129.357 E44.4502
G1 X76.979 Y128.92 E44.50484
G1 X76.796 Y128.449 E44.55941
G1 X76.689 Y127.955 E44.614
G1 X76.653 Y127.285 E44.68647
G1 X76.651 Y96.097 E48.05477
G1 X76.66 Y95.427 E48.12714
G1 X76.707 Y94.924 E48.1817
G1 X76.832 Y94.434 E48.23631
G1 X77.033 Y93.97 E48.29092
G1 X77.305 Y93.543 E48.3456
G1 X77.64 Y93.165 E48.40015
G10
G0 F7200 X80.051 Y95.661
G11
G1 F1800 X90.661 Y95.645 E49.54603
G1 X90.672 Y95.645 E49.54722
G1 X91.481 Y95.599 E49.63473
G1 X91.53 Y95.59 E49.64011
G1 X92.411 Y95.314 E49.73982
G1 X92.431 Y95.306 E49.74215
G1 X92.994 Y95.06 E49.8085
G1 X103.728 Y95.06 E50.96777
G1 X103.737 Y95.08 E50.97014
G1 X103.857 Y95.185 E50.98736
G1 X104.912 Y95.524 E51.10704
G1 X104.948 Y95.532 E51.11102
G1 X105.967 Y95.658 E51.22192
G1 X105.992 Y95.66 E51.22462
G1 X120.687 Y95.65 E52.81168
G1 X120.705 Y95.649 E52.81363
G1 X121.689 Y95.561 E52.92033
G1 X121.739 Y95.55 E52.92586
G1 X122.753 Y95.186 E53.04221
G1 X122.79 Y95.168 E53.04665
G1 X123.366 Y94.813 E53.11973
G1 X123.391 Y94.795 E53.12306
G1 X123.921 Y94.341 E53.19842
G1 X123.939 Y94.324 E53.2011
G1 X124.386 Y93.835 E53.27265
G1 X124.438 Y93.7 E53.28827
G1 X124.438 Y93.66 E53.29259
G1 X124.551 Y93.66 E53.3048
G1 X124.613 Y93.65 E53.31158
G1 X125.195 Y93.46 E53.3777
G1 X126.046 Y93.461 E53.46961
G1 X126.848 Y93.625 E53.55802
G1 X126.891 Y93.629 E53.56268
G1 X127.977 Y93.615 E53.67998
G1 X127.983 Y93.615 E53.68063
G1 X129.267 Y93.554 E53.81946
G1 X129.306 Y93.548 E53.82372
G1 X130.223 Y93.322 E53.92572
G1 X130.248 Y93.314 E53.92855
G1 X130.881 Y93.065 E54.00202
G1 X134.509 Y93.06 E54.39384
G1 X135.013 Y93.177 E54.44972
G1 X135.762 Y93.474 E54.53674
G1 X135.803 Y93.485 E54.54132
G1 X136.862 Y93.661 E54.65726
G1 X136.902 Y93.664 E54.6616
G1 X138.157 Y93.621 E54.79722
G1 X138.203 Y93.614 E54.80224
G1 X139.28 Y93.319 E54.92284
G1 X139.316 Y93.305 E54.92701
G1 X140.164 Y92.882 E55.02936
G1 X140.191 Y92.866 E55.03275
G1 X140.988 Y92.298 E55.13845
G1 X141.525 Y92.061 E55.20184
G1 X144.365 Y92.06 E55.50856
G1 X144.893 Y92.174 E55.5669
G1 X145.53 Y92.635 E55.65182
G1 X145.927 Y93.54 E55.75855
G1 X146.01 Y93.633 E55.77201
G1 X146.056 Y93.645 E55.77715
G1 X146.057 Y129.373 E59.63577
G1 X146.01 Y129.388 E59.6411
G1 X145.943 Y129.476 E59.65304
G1 X145.756 Y129.952 E59.70828
G1 X145.475 Y130.433 E59.76844
G1 X145.272 Y130.624 E59.79854
G1 X144.833 Y130.839 E59.85134
G1 X144.361 Y130.94 E59.90347
G1 X141.735 Y130.94 E60.18707
G1 X141.08 Y130.785 E60.25977
G1 X140.58 Y130.399 E60.32799
G1 X140.566 Y130.389 E60.32985
G1 X139.962 Y130.001 E60.40738
G1 X139.933 Y129.985 E60.41095
G1 X139.217 Y129.675 E60.49522
G1 X139.191 Y129.666 E60.49819
G1 X138.379 Y129.442 E60.58916
G1 X138.351 Y129.437 E60.59223
G1 X137.639 Y129.347 E60.66974
G1 X137.608 Y129.345 E60.6731
G1 X136.712 Y129.373 E60.76991
G1 X136.67 Y129.379 E60.77449
G1 X135.452 Y129.683 E60.91007
G1 X135.445 Y129.685 E60.91086
G1 X134.578 Y129.935 E61.00831
G1 X131.041 Y129.94 E61.39031
G1 X130.515 Y129.818 E61.44862
G1 X129.787 Y129.582 E61.53127
G1 X129.765 Y129.576 E61.53374
G1 X128.916 Y129.404 E61.62729
G1 X128.877 Y129.4 E61.63153
G1 X127.61 Y129.391 E61.76837
G1 X127.602 Y129.391 E61.76923
G1 X126.723 Y129.42 E61.86421
G1 X126.697 Y129.423 E61.86704
G1 X125.997 Y129.54 E61.94369
G1 X125.118 Y129.539 E62.03862
G1 X124.597 Y129.353 E62.09837
G1 X124.53 Y129.341 E62.10572
G1 X124.438 Y129.341 E62.11565
G1 X124.438 Y129.311 E62.11889
G1 X124.391 Y129.183 E62.13362
G1 X124.044 Y128.768 E62.19204
G1 X124.018 Y128.742 E62.19602
G1 X123.284 Y128.137 E62.29874
G1 X123.257 Y128.118 E62.30231
G1 X122.658 Y127.773 E62.37697
G1 X122.617 Y127.755 E62.3818
G1 X121.878 Y127.528 E62.46529
G1 X121.857 Y127.523 E62.46763
G1 X121.202 Y127.397 E62.53966
G1 X121.181 Y127.394 E62.54195
G1 X120.553 Y127.341 E62.61002
G1 X120.536 Y127.34 E62.61186
G1 X105.64 Y127.366 E64.22063
G1 X105.596 Y127.371 E64.22541
G1 X104.525 Y127.61 E64.34392
G1 X104.493 Y127.62 E64.34754
G1 X103.714 Y127.94 E64.4385
G1 X92.962 Y127.94 E65.59971
G1 X92.879 Y127.866 E65.61172
G1 X92.088 Y127.546 E65.70388
G1 X92.05 Y127.534 E65.70818
G1 X91.024 Y127.343 E65.82089
G1 X90.987 Y127.34 E65.8249
G1 X80.052 Y127.34 E67.00588
G1 X80.051 Y95.661 E70.42721
G0 F7200 X80.451 Y96.06
G1 F1800 X90.662 Y96.045 E71.53
G1 X90.695 Y96.044 E71.53357
G1 X91.504 Y95.998 E71.62108
G1 X91.649 Y95.972 E71.63699
G1 X92.53 Y95.696 E71.7367
G1 X92.591 Y95.673 E71.74374
G1 X93.079 Y95.46 E71.80125
G1 X103.558 Y95.46 E72.93298
G1 X103.734 Y95.566 E72.95517
G1 X104.789 Y95.905 E73.07484
G1 X104.899 Y95.929 E73.087
G1 X105.918 Y96.055 E73.19789
G1 X105.992 Y96.06 E73.2059
G1 X120.687 Y96.05 E74.79297
G1 X120.74 Y96.048 E74.79869
G1 X121.724 Y95.96 E74.90539
G1 X121.874 Y95.927 E74.92198
G1 X122.888 Y95.563 E75.03833
G1 X123 Y95.509 E75.05176
G1 X123.576 Y95.154 E75.12483
G1 X123.651 Y95.099 E75.13488
G1 X124.181 Y94.645 E75.21025
G1 X124.234 Y94.594 E75.21819
G1 X124.681 Y94.105 E75.28974
G1 X124.727 Y94.032 E75.29906
G1 X124.737 Y94.03 E75.30016
G1 X125.258 Y93.86 E75.35935
G1 X126.005 Y93.861 E75.44003
G1 X126.768 Y94.017 E75.52414
G1 X126.896 Y94.029 E75.53802
G1 X127.982 Y94.015 E75.65532
G1 X128.002 Y94.014 E75.65748
G1 X129.286 Y93.953 E75.79631
G1 X129.402 Y93.937 E75.80896
G1 X130.319 Y93.711 E75.91096
G1 X130.395 Y93.686 E75.9196
G1 X130.957 Y93.465 E75.98482
G1 X134.465 Y93.46 E76.36368
G1 X134.89 Y93.559 E76.41081
G1 X135.615 Y93.846 E76.49502
G1 X135.738 Y93.88 E76.5088
G1 X136.797 Y94.056 E76.62474
G1 X136.916 Y94.064 E76.63763
G1 X138.171 Y94.021 E76.77324
G1 X138.309 Y94 E76.78832
G1 X139.386 Y93.705 E76.90892
G1 X139.495 Y93.663 E76.92154
G1 X140.343 Y93.24 E77.02388
G1 X140.423 Y93.192 E77.03396
G1 X141.188 Y92.647 E77.1354
G1 X141.609 Y92.461 E77.18511
G1 X144.322 Y92.46 E77.47811
G1 X144.726 Y92.547 E77.52274
G1 X145.208 Y92.896 E77.58701
G1 X145.561 Y93.701 E77.68195
G1 X145.656 Y93.842 E77.70031
G1 X145.657 Y129.205 E81.51951
G1 X145.571 Y129.329 E81.53581
G1 X145.395 Y129.776 E81.58769
G1 X145.158 Y130.183 E81.63856
G1 X145.043 Y130.291 E81.6556
G1 X144.701 Y130.459 E81.69675
G1 X144.32 Y130.54 E81.73882
G1 X141.781 Y130.54 E82.01303
G1 X141.258 Y130.416 E82.07108
G1 X140.825 Y130.082 E82.13014
G1 X140.782 Y130.052 E82.1358
G1 X140.178 Y129.664 E82.21333
G1 X140.092 Y129.618 E82.22386
G1 X139.376 Y129.308 E82.30813
G1 X139.298 Y129.281 E82.31704
G1 X138.486 Y129.057 E82.40801
G1 X138.401 Y129.04 E82.41738
G1 X137.689 Y128.95 E82.49488
G1 X137.595 Y128.945 E82.50505
G1 X136.699 Y128.973 E82.60187
G1 X136.573 Y128.991 E82.61561
G1 X135.355 Y129.295 E82.75119
G1 X135.334 Y129.3 E82.75352
G1 X134.518 Y129.535 E82.84523
G1 X131.088 Y129.54 E83.21567
G1 X130.623 Y129.433 E83.26721
G1 X129.91 Y129.201 E83.34818
G1 X129.844 Y129.184 E83.35554
G1 X128.995 Y129.012 E83.4491
G1 X128.88 Y129 E83.46159
G1 X127.613 Y128.991 E83.59843
G1 X127.589 Y128.991 E83.60102
G1 X126.71 Y129.02 E83.696
G1 X126.631 Y129.028 E83.70458
G1 X125.961 Y129.14 E83.77794
G1 X125.189 Y129.139 E83.86132
G1 X124.732 Y128.976 E83.91372
G1 X124.727 Y128.975 E83.91427
G1 X124.698 Y128.926 E83.92042
G1 X124.351 Y128.511 E83.97884
G1 X124.273 Y128.433 E83.99076
G1 X123.539 Y127.828 E84.09349
G1 X123.456 Y127.771 E84.10436
G1 X122.857 Y127.426 E84.17901
G1 X122.734 Y127.372 E84.19352
G1 X121.995 Y127.145 E84.27701
G1 X121.932 Y127.13 E84.28401
G1 X121.277 Y127.004 E84.35605
G1 X121.214 Y126.995 E84.36292
G1 X120.586 Y126.942 E84.43098
G1 X120.535 Y126.94 E84.4365
G1 X105.639 Y126.966 E86.04527
G1 X105.509 Y126.98 E86.05939
G1 X104.438 Y127.219 E86.1779
G1 X104.341 Y127.25 E86.1889
G1 X103.635 Y127.54 E86.27133
G1 X93.103 Y127.54 E87.40878
G1 X93.029 Y127.495 E87.41814
G1 X92.238 Y127.175 E87.51029
G1 X92.123 Y127.141 E87.52324
G1 X91.097 Y126.95 E87.63596
G1 X90.987 Y126.94 E87.64788
G1 X80.452 Y126.94 E88.78566
G1 X80.451 Y96.06 E92.1207
G0 F7200 X80.851 Y96.46
G1 F1800 X90.662 Y96.445 E93.18029
G1 X90.718 Y96.443 E93.18635
G1 X91.527 Y96.397 E93.27386
G1 X91.769 Y96.353 E93.30042
G1 X92.65 Y96.077 E93.40013
G1 X92.751 Y96.039 E93.41179
G1 X93.161 Y95.86 E93.4601
G1 X96.64 Y95.86 E93.83583
G1 X96.526 Y96.035 E93.85839
G1 X96.443 Y96.305 E93.8889
G1 X96.431 Y96.46 E93.90569
G1 X96.432 Y102.571 E94.56568
G1 X96.472 Y102.85 E94.59612
G1 X96.588 Y103.108 E94.62667
G1 X96.772 Y103.322 E94.65715
G1 X97.008 Y103.476 E94.68758
G1 X97.277 Y103.559 E94.71798
G1 X97.432 Y103.571 E94.73477
G1 X99.599 Y103.571 E94.96881
G1 X99.878 Y103.531 E94.99925
G1 X100.135 Y103.415 E95.0297
G1 X100.35 Y103.232 E95.0602
G1 X100.504 Y102.996 E95.09063
G1 X100.587 Y102.726 E95.12114
G1 X100.599 Y102.571 E95.13793
G1 X100.598 Y96.46 E95.79791
G1 X100.558 Y96.181 E95.82835
G1 X100.442 Y95.923 E95.85891
G1 X100.388 Y95.86 E95.86787
G1 X103.427 Y95.86 E96.19608
G1 X103.612 Y95.947 E96.21816
G1 X104.667 Y96.286 E96.33784
G1 X104.85 Y96.326 E96.35807
G1 X105.869 Y96.452 E96.46896
G1 X105.993 Y96.46 E96.48238
G1 X120.688 Y96.45 E98.06944
G1 X120.776 Y96.446 E98.07895
G1 X121.76 Y96.358 E98.18565
G1 X122.009 Y96.303 E98.21319
G1 X123.023 Y95.939 E98.32954
G1 X123.21 Y95.849 E98.35195
G1 X123.786 Y95.494 E98.42503
G1 X123.912 Y95.402 E98.44188
G1 X124.442 Y94.948 E98.51725
G1 X124.529 Y94.864 E98.53031
G1 X124.976 Y94.375 E98.60186
G1 X125.323 Y94.26 E98.64134
G1 X125.964 Y94.261 E98.71057
G1 X126.688 Y94.409 E98.79038
G1 X126.901 Y94.429 E98.81348
G1 X127.987 Y94.415 E98.93078
G1 X128.021 Y94.414 E98.93445
G1 X129.305 Y94.353 E99.07328
G1 X129.497 Y94.325 E99.09424
G1 X130.414 Y94.099 E99.19624
G1 X130.541 Y94.058 E99.21065
G1 X131.032 Y93.865 E99.26763
G1 X134.417 Y93.86 E99.63321
G1 X134.774 Y93.943 E99.67279
G1 X135.468 Y94.218 E99.75341
G1 X135.672 Y94.274 E99.77626
G1 X136.731 Y94.45 E99.8922
G1 X136.929 Y94.463 E99.91363
G1 X138.184 Y94.42 E100.04925
G1 X138.414 Y94.385 E100.07438
G1 X139.491 Y94.09 E100.19498
G1 X139.673 Y94.021 E100.216
G1 X140.521 Y93.598 E100.31835
G1 X140.655 Y93.517 E100.33526
G1 X141.383 Y92.998 E100.43181
G1 X141.694 Y92.861 E100.46852
G1 X144.28 Y92.86 E100.7478
G1 X144.56 Y92.921 E100.77875
